Sources/FrostedUI/Resources/Icons.xcassets/peoplePlus32.imageset/people-plus-32.svg

<svg width="32" height="32" viewBox="0 0 32 32" fill="none" xmlns="http://www.w3.org/2000/svg" data-fui-icon="true">
  <path
    d="M25 18.25C25.4142 18.25 25.75 18.5858 25.75 19V23.25H30C30.4142 23.25 30.75 23.5858 30.75 24C30.75 24.4142 30.4142 24.75 30 24.75H25.75V29C25.75 29.4142 25.4142 29.75 25 29.75C24.5858 29.75 24.25 29.4142 24.25 29V24.75H20C19.5858 24.75 19.25 24.4142 19.25 24C19.25 23.5858 19.5858 23.25 20 23.25H24.25V19C24.25 18.5858 24.5858 18.25 25 18.25ZM24.2324 10.25C27.5556 10.25 30.3596 12.4635 31.3564 15.5186H31.3555C31.615 16.2998 31.75 17.1395 31.75 18C31.75 18.4142 31.4142 18.75 31 18.75C30.5858 18.75 30.25 18.4142 30.25 18C30.25 17.2936 30.1395 16.6127 29.9316 15.9883L30.6973 15.7334L29.9307 15.9834C29.1213 13.5032 26.8628 11.75 24.2324 11.75C21.8163 11.75 19.7098 13.2397 18.7578 15.4111C19.8827 16.203 20.854 17.183 21.6191 18.3037C21.8527 18.6458 21.7648 19.1121 21.4229 19.3457C21.0808 19.5792 20.6144 19.4914 20.3809 19.1494C18.513 16.4135 15.2106 14.6163 11.458 14.7578C5.97134 14.964 1.75 19.4911 1.75 24.6914C1.75 26.07 2.93524 27.2499 4.48438 27.25H18.123C18.5371 27.2502 18.873 27.5859 18.873 28C18.873 28.4141 18.5371 28.7498 18.123 28.75H4.48438C2.18103 28.7499 0.250004 26.9707 0.25 24.6914C0.25 18.6844 5.10889 13.4953 11.4014 13.2588C13.605 13.1756 15.6797 13.6814 17.4688 14.623C18.6806 12.0455 21.2486 10.25 24.2324 10.25ZM29.9316 15.9883L29.9307 15.9844L30.6436 15.751L29.9316 15.9883ZM11.5 1.25C14.3995 1.25 16.75 3.6005 16.75 6.5C16.75 9.39949 14.3995 11.75 11.5 11.75C8.6005 11.75 6.25 9.39949 6.25 6.5C6.25 3.6005 8.6005 1.25 11.5 1.25ZM11.5 2.75C9.42893 2.75 7.75 4.42893 7.75 6.5C7.75 8.57107 9.42893 10.25 11.5 10.25C13.5711 10.25 15.25 8.57107 15.25 6.5C15.25 4.42893 13.5711 2.75 11.5 2.75ZM24 2.25C26.0711 2.25 27.75 3.92893 27.75 6C27.75 8.07107 26.0711 9.75 24 9.75C21.9289 9.75 20.25 8.07107 20.25 6C20.25 3.92893 21.9289 2.25 24 2.25ZM24 3.75C22.7574 3.75 21.75 4.75736 21.75 6C21.75 7.24264 22.7574 8.25 24 8.25C25.2426 8.25 26.25 7.24264 26.25 6C26.25 4.75736 25.2426 3.75 24 3.75Z"
    fill="currentColor"
  />
</svg>

<svg xmlns="http://www.w3.org/2000/svg" width="32" height="32" fill="none" data-fui-icon="true" viewBox="0 0 32 32"><path fill="currentColor" d="M25 18.25a.75.75 0 0 1 .75.75v4.25H30a.75.75 0 0 1 0 1.5h-4.25V29a.75.75 0 0 1-1.5 0v-4.25H20a.75.75 0 0 1 0-1.5h4.25V19a.75.75 0 0 1 .75-.75m-.768-8c3.324 0 6.128 2.214 7.124 5.269.259.78.394 1.62.394 2.481a.75.75 0 0 1-1.5 0c0-.706-.11-1.387-.318-2.012l.765-.255-.766.25c-.81-2.48-3.068-4.233-5.699-4.233-2.416 0-4.522 1.49-5.474 3.661a11.4 11.4 0 0 1 2.861 2.893.75.75 0 1 1-1.238.845c-1.868-2.736-5.17-4.533-8.923-4.391-5.487.206-9.708 4.733-9.708 9.933 0 1.379 1.185 2.559 2.734 2.559h13.639a.75.75 0 0 1 0 1.5H4.484C2.181 28.75.25 26.97.25 24.691c0-6.007 4.859-11.196 11.151-11.432a12 12 0 0 1 6.068 1.364c1.212-2.577 3.78-4.373 6.763-4.373m5.7 5.738-.001-.004.713-.233zM11.5 1.25a5.25 5.25 0 1 1 0 10.5 5.25 5.25 0 0 1 0-10.5m0 1.5a3.75 3.75 0 1 0 0 7.5 3.75 3.75 0 0 0 0-7.5m12.5-.5a3.75 3.75 0 1 1 0 7.5 3.75 3.75 0 0 1 0-7.5m0 1.5a2.25 2.25 0 1 0 0 4.5 2.25 2.25 0 0 0 0-4.5"/></svg>
